public/images/icons/succulent.svg

<svg xmlns="http://www.w3.org/2000/svg" width="27" height="28" fill="none"><g filter="url(#a)"><g filter="url(#b)"><path fill="#B26B00" d="M7.494 18.041a.688.688 0 0 1 .682-.78h10.708c.416 0 .737.367.682.78l-.845 6.338a.69.69 0 0 1-.683.598H9.022a.69.69 0 0 1-.682-.598z"/></g><path stroke="#fff" stroke-miterlimit="10" stroke-width=".257" d="M7.494 18.041a.688.688 0 0 1 .682-.78h10.708c.416 0 .737.367.682.78l-.845 6.338a.69.69 0 0 1-.683.598H9.022a.69.69 0 0 1-.682-.598z"/><g filter="url(#c)"><path fill="#2DDF00" d="M22.072 6.42a.246.246 0 0 1 .252.253 9.4 9.4 0 0 1-3.365 6.951.25.25 0 0 1-.163.058h-3.281a.267.267 0 0 1-.233-.389 9.3 9.3 0 0 0 1.002-4.218v-.328c0-.077.035-.15.095-.199C17.999 7.251 20 6.47 22.072 6.42"/></g><path stroke="#fff" stroke-miterlimit="10" stroke-width=".257" d="M22.072 6.42a.246.246 0 0 1 .252.253 9.4 9.4 0 0 1-3.365 6.951.25.25 0 0 1-.163.058h-3.281a.267.267 0 0 1-.233-.389 9.3 9.3 0 0 0 1.002-4.218v-.328c0-.077.035-.15.095-.199C17.999 7.251 20 6.47 22.072 6.42Z"/><g filter="url(#d)"><path fill="#2DDF00" d="M16.284 9.075a9.3 9.3 0 0 1-1.138 4.477.25.25 0 0 1-.222.13h-2.786a.25.25 0 0 1-.223-.131 9.44 9.44 0 0 1-1.128-4.926 9.4 9.4 0 0 1 2.564-6.009.247.247 0 0 1 .359 0 9.4 9.4 0 0 1 2.563 5.998c.011.172.011.311.011.461"/></g><path stroke="#fff" stroke-miterlimit="10" stroke-width=".257" d="M16.284 9.075a9.3 9.3 0 0 1-1.138 4.477.25.25 0 0 1-.222.13h-2.786a.25.25 0 0 1-.223-.131 9.44 9.44 0 0 1-1.128-4.926 9.4 9.4 0 0 1 2.564-6.009.247.247 0 0 1 .359 0 9.4 9.4 0 0 1 2.563 5.998c.011.172.011.311.011.461Z"/><g filter="url(#e)"><path fill="#2DDF00" d="M11.781 13.294a.267.267 0 0 1-.233.388H8.265a.25.25 0 0 1-.163-.058 9.4 9.4 0 0 1-3.365-6.939.247.247 0 0 1 .254-.254 9.45 9.45 0 0 1 5.698 2.102c.062.05.096.128.093.21a9.44 9.44 0 0 0 1 4.551"/></g><path stroke="#fff" stroke-miterlimit="10" stroke-width=".257" d="M11.781 13.294a.267.267 0 0 1-.233.388H8.265a.25.25 0 0 1-.163-.058 9.4 9.4 0 0 1-3.365-6.939.247.247 0 0 1 .254-.254 9.45 9.45 0 0 1 5.698 2.102c.062.05.096.128.093.21a9.44 9.44 0 0 0 1 4.551Z"/><path stroke="#008B0E" stroke-linecap="round" stroke-width=".257" d="m11.399 5.454.576.74m2.873.001.576-.741m-1.39-1.449.576-.741m-2.21 0 .576.74M11.81 10.21l.575.74m-.575-3.431.575.74M14.5 10.95l.576-.74M14.5 8.26l.576-.741m-1.577-1.413v-.938m5.089 1.662-.116.93m2.458 2.458.93-.117m.042-2.007.932-.116m-1.99-1.99-.116.932m-3.097 1.872-.116.932m-.408 3.398.932-.117m.971-1.786.931-.117m-.116-2.114.663-.663M5.362 10.476l.932.116m2.457-2.457-.116-.931m-2.008-.042-.116-.931M4.522 8.22l.931.116m1.873 3.097.931.117m.925 1.288h.938m-.368-2.783-.116-.932m-2.114.117-.664-.664"/><g filter="url(#f)"><path fill="#B26B00" d="M20 13.683H7.06a.69.69 0 0 0-.688.688v2.717c0 .38.308.688.688.688H20c.38 0 .688-.308.688-.688V14.37a.69.69 0 0 0-.689-.688"/></g><path stroke="#fff" stroke-miterlimit="10" stroke-width=".257" d="M20 13.683H7.06a.69.69 0 0 0-.688.688v2.717c0 .38.308.688.688.688H20c.38 0 .688-.308.688-.688V14.37a.69.69 0 0 0-.689-.688Z"/></g><defs><filter id="a" width="29.831" height="29.831" x="-1.385" y="-1.233" color-interpolation-filters="sRGB" filterUnits="userSpaceOnUse"><feFlood flood-opacity="0" result="BackgroundImageFix"/><feColorMatrix in="SourceAlpha" result="hardAlpha" values="0 0 0 0 0 0 0 0 0 0 0 0 0 0 0 0 0 0 127 0"/><feOffset/><feGaussianBlur stdDeviation="1.029"/><feColorMatrix values="0 0 0 0 0 0 0 0 0 0 0 0 0 0 0 0 0 0 0.5 0"/><feBlend in2="BackgroundImageFix" result="effect1_dropShadow_791_51917"/><feBlend in="SourceGraphic" in2="effect1_dropShadow_791_51917" result="shape"/><feColorMatrix in="SourceAlpha" result="hardAlpha" values="0 0 0 0 0 0 0 0 0 0 0 0 0 0 0 0 0 0 127 0"/><feOffset dx="-1.543" dy="-1.543"/><feGaussianBlur stdDeviation=".771"/><feComposite in2="hardAlpha" k2="-1" k3="1" operator="arithmetic"/><feColorMatrix values="0 0 0 0 0 0 0 0 0 0 0 0 0 0 0 0 0 0 0.25 0"/><feBlend in2="shape" result="effect2_innerShadow_791_51917"/><feColorMatrix in="SourceAlpha" result="hardAlpha" values="0 0 0 0 0 0 0 0 0 0 0 0 0 0 0 0 0 0 127 0"/><feOffset dx="1.543" dy="1.543"/><feGaussianBlur stdDeviation=".771"/><feComposite in2="hardAlpha" k2="-1" k3="1" operator="arithmetic"/><feColorMatrix values="0 0 0 0 1 0 0 0 0 1 0 0 0 0 1 0 0 0 0.5 0"/><feBlend in2="effect2_innerShadow_791_51917" result="effect3_innerShadow_791_51917"/></filter><filter id="b" width="12.341" height="7.972" x="7.359" y="17.133" color-interpolation-filters="sRGB" filterUnits="userSpaceOnUse"><feFlood flood-opacity="0" result="BackgroundImageFix"/><feBlend in="SourceGraphic" in2="BackgroundImageFix" result="shape"/><feColorMatrix in="SourceAlpha" result="hardAlpha" values="0 0 0 0 0 0 0 0 0 0 0 0 0 0 0 0 0 0 127 0"/><feOffset dx="-.514" dy="-.514"/><feComposite in2="hardAlpha" k2="-1" k3="1" operator="arithmetic"/><feColorMatrix values="0 0 0 0 0 0 0 0 0 0 0 0 0 0 0 0 0 0 0.25 0"/><feBlend in2="shape" result="effect1_innerShadow_791_51917"/></filter><filter id="c" width="7.328" height="7.52" x="15.124" y="6.292" color-interpolation-filters="sRGB" filterUnits="userSpaceOnUse"><feFlood flood-opacity="0" result="BackgroundImageFix"/><feBlend in="SourceGraphic" in2="BackgroundImageFix" result="shape"/><feColorMatrix in="SourceAlpha" result="hardAlpha" values="0 0 0 0 0 0 0 0 0 0 0 0 0 0 0 0 0 0 127 0"/><feOffset dx="-1.68" dy="-1.68"/><feComposite in2="hardAlpha" k2="-1" k3="1" operator="arithmetic"/><feColorMatrix values="0 0 0 0 0 0 0 0 0 0 0 0 0 0 0 0 0 0 0.25 0"/><feBlend in2="shape" result="effect1_innerShadow_791_51917"/></filter><filter id="d" width="5.764" height="11.401" x="10.649" y="2.41" color-interpolation-filters="sRGB" filterUnits="userSpaceOnUse"><feFlood flood-opacity="0" result="BackgroundImageFix"/><feBlend in="SourceGraphic" in2="BackgroundImageFix" result="shape"/><feColorMatrix in="SourceAlpha" result="hardAlpha" values="0 0 0 0 0 0 0 0 0 0 0 0 0 0 0 0 0 0 127 0"/><feOffset dx="-1.68" dy="-1.68"/><feComposite in2="hardAlpha" k2="-1" k3="1" operator="arithmetic"/><feColorMatrix values="0 0 0 0 0 0 0 0 0 0 0 0 0 0 0 0 0 0 0.25 0"/><feBlend in2="shape" result="effect1_innerShadow_791_51917"/></filter><filter id="e" width="7.33" height="7.508" x="4.608" y="6.303" color-interpolation-filters="sRGB" filterUnits="userSpaceOnUse"><feFlood flood-opacity="0" result="BackgroundImageFix"/><feBlend in="SourceGraphic" in2="BackgroundImageFix" result="shape"/><feColorMatrix in="SourceAlpha" result="hardAlpha" values="0 0 0 0 0 0 0 0 0 0 0 0 0 0 0 0 0 0 127 0"/><feOffset dx="-1.68" dy="-1.68"/><feComposite in2="hardAlpha" k2="-1" k3="1" operator="arithmetic"/><feColorMatrix values="0 0 0 0 0 0 0 0 0 0 0 0 0 0 0 0 0 0 0.25 0"/><feBlend in2="shape" result="effect1_innerShadow_791_51917"/></filter><filter id="f" width="14.573" height="4.35" x="6.244" y="13.554" color-interpolation-filters="sRGB" filterUnits="userSpaceOnUse"><feFlood flood-opacity="0" result="BackgroundImageFix"/><feBlend in="SourceGraphic" in2="BackgroundImageFix" result="shape"/><feColorMatrix in="SourceAlpha" result="hardAlpha" values="0 0 0 0 0 0 0 0 0 0 0 0 0 0 0 0 0 0 127 0"/><feOffset dx="-.514" dy="-.514"/><feComposite in2="hardAlpha" k2="-1" k3="1" operator="arithmetic"/><feColorMatrix values="0 0 0 0 0 0 0 0 0 0 0 0 0 0 0 0 0 0 0.25 0"/><feBlend in2="shape" result="effect1_innerShadow_791_51917"/></filter></defs></svg>

<svg xmlns="http://www.w3.org/2000/svg" width="27" height="28" fill="none"><g filter="url(#a)"><g filter="url(#b)"><path fill="#B26B00" d="M7.494 18.041a.688.688 0 0 1 .682-.78h10.708c.416 0 .737.367.682.78l-.845 6.338a.69.69 0 0 1-.683.598H9.022a.69.69 0 0 1-.682-.598z"/></g><path stroke="#fff" stroke-miterlimit="10" stroke-width=".257" d="M7.494 18.041a.688.688 0 0 1 .682-.78h10.708c.416 0 .737.367.682.78l-.845 6.338a.69.69 0 0 1-.683.598H9.022a.69.69 0 0 1-.682-.598z"/><g filter="url(#c)"><path fill="#2DDF00" d="M22.072 6.42a.246.246 0 0 1 .252.253 9.39 9.39 0 0 1-3.365 6.951.25.25 0 0 1-.163.058h-3.281a.267.267 0 0 1-.233-.389 9.3 9.3 0 0 0 1.002-4.218v-.328c0-.077.035-.15.095-.199C17.999 7.251 20 6.47 22.072 6.42"/></g><path stroke="#fff" stroke-miterlimit="10" stroke-width=".257" d="M22.072 6.42a.246.246 0 0 1 .252.253 9.39 9.39 0 0 1-3.365 6.951.25.25 0 0 1-.163.058h-3.281a.267.267 0 0 1-.233-.389 9.3 9.3 0 0 0 1.002-4.218v-.328c0-.077.035-.15.095-.199C17.999 7.251 20 6.47 22.072 6.42Z"/><g filter="url(#d)"><path fill="#2DDF00" d="M16.284 9.075a9.3 9.3 0 0 1-1.138 4.477.25.25 0 0 1-.222.13h-2.786a.25.25 0 0 1-.223-.131 9.44 9.44 0 0 1-1.128-4.926 9.4 9.4 0 0 1 2.564-6.009.247.247 0 0 1 .359 0 9.4 9.4 0 0 1 2.563 5.998c.011.172.011.311.011.461"/></g><path stroke="#fff" stroke-miterlimit="10" stroke-width=".257" d="M16.284 9.075a9.3 9.3 0 0 1-1.138 4.477.25.25 0 0 1-.222.13h-2.786a.25.25 0 0 1-.223-.131 9.44 9.44 0 0 1-1.128-4.926 9.4 9.4 0 0 1 2.564-6.009.247.247 0 0 1 .359 0 9.4 9.4 0 0 1 2.563 5.998c.011.172.011.311.011.461Z"/><g filter="url(#e)"><path fill="#2DDF00" d="M11.781 13.294a.267.267 0 0 1-.233.388H8.265a.25.25 0 0 1-.163-.058 9.39 9.39 0 0 1-3.365-6.939.247.247 0 0 1 .254-.254 9.45 9.45 0 0 1 5.698 2.102c.062.05.096.128.093.21a9.44 9.44 0 0 0 1 4.551"/></g><path stroke="#fff" stroke-miterlimit="10" stroke-width=".257" d="M11.781 13.294a.267.267 0 0 1-.233.388H8.265a.25.25 0 0 1-.163-.058 9.39 9.39 0 0 1-3.365-6.939.247.247 0 0 1 .254-.254 9.45 9.45 0 0 1 5.698 2.102c.062.05.096.128.093.21a9.44 9.44 0 0 0 1 4.551Z"/><path stroke="#008B0E" stroke-linecap="round" stroke-width=".257" d="m11.399 5.454.576.74M14.848 6.195l.576-.741M14.034 4.005l.576-.741M12.4 3.264l.576.74M11.81 10.21l.575.74M11.81 7.519l.575.74M14.5 10.95l.576-.74M14.5 8.26l.576-.741M13.499 6.106v-.938M18.588 6.83l-.116.93M20.93 10.218l.93-.117M21.902 8.094l.932-.116M20.844 5.988l-.116.932M17.631 8.792l-.116.932M17.107 13.122l.932-.117M19.01 11.219l.931-.117M19.825 8.988l.663-.663M5.362 10.476l.932.116M8.751 8.135l-.116-.931M6.627 7.162l-.116-.931M4.522 8.22l.931.116M7.326 11.433l.931.117M9.182 12.838h.938M9.752 10.055l-.116-.932M7.522 9.24l-.664-.664"/><g filter="url(#f)"><path fill="#B26B00" d="M20 13.683H7.06a.69.69 0 0 0-.688.688v2.717c0 .38.308.688.688.688H20c.38 0 .688-.308.688-.688V14.37a.69.69 0 0 0-.689-.688"/></g><path stroke="#fff" stroke-miterlimit="10" stroke-width=".257" d="M20 13.683H7.06a.69.69 0 0 0-.688.688v2.717c0 .38.308.688.688.688H20c.38 0 .688-.308.688-.688V14.37a.69.69 0 0 0-.689-.688Z"/></g><defs><filter id="a" width="29.831" height="29.831" x="-1.385" y="-1.233" color-interpolation-filters="sRGB" filterUnits="userSpaceOnUse"><feFlood flood-opacity="0" result="BackgroundImageFix"/><feColorMatrix in="SourceAlpha" result="hardAlpha" values="0 0 0 0 0 0 0 0 0 0 0 0 0 0 0 0 0 0 127 0"/><feOffset/><feGaussianBlur stdDeviation="1.029"/><feColorMatrix values="0 0 0 0 0 0 0 0 0 0 0 0 0 0 0 0 0 0 0.5 0"/><feBlend in2="BackgroundImageFix" result="effect1_dropShadow_791_51917"/><feBlend in="SourceGraphic" in2="effect1_dropShadow_791_51917" result="shape"/><feColorMatrix in="SourceAlpha" result="hardAlpha" values="0 0 0 0 0 0 0 0 0 0 0 0 0 0 0 0 0 0 127 0"/><feOffset dx="-1.543" dy="-1.543"/><feGaussianBlur stdDeviation=".771"/><feComposite in2="hardAlpha" k2="-1" k3="1" operator="arithmetic"/><feColorMatrix values="0 0 0 0 0 0 0 0 0 0 0 0 0 0 0 0 0 0 0.25 0"/><feBlend in2="shape" result="effect2_innerShadow_791_51917"/><feColorMatrix in="SourceAlpha" result="hardAlpha" values="0 0 0 0 0 0 0 0 0 0 0 0 0 0 0 0 0 0 127 0"/><feOffset dx="1.543" dy="1.543"/><feGaussianBlur stdDeviation=".771"/><feComposite in2="hardAlpha" k2="-1" k3="1" operator="arithmetic"/><feColorMatrix values="0 0 0 0 1 0 0 0 0 1 0 0 0 0 1 0 0 0 0.5 0"/><feBlend in2="effect2_innerShadow_791_51917" result="effect3_innerShadow_791_51917"/></filter><filter id="b" width="12.341" height="7.972" x="7.359" y="17.133" color-interpolation-filters="sRGB" filterUnits="userSpaceOnUse"><feFlood flood-opacity="0" result="BackgroundImageFix"/><feBlend in="SourceGraphic" in2="BackgroundImageFix" result="shape"/><feColorMatrix in="SourceAlpha" result="hardAlpha" values="0 0 0 0 0 0 0 0 0 0 0 0 0 0 0 0 0 0 127 0"/><feOffset dx="-.514" dy="-.514"/><feComposite in2="hardAlpha" k2="-1" k3="1" operator="arithmetic"/><feColorMatrix values="0 0 0 0 0 0 0 0 0 0 0 0 0 0 0 0 0 0 0.25 0"/><feBlend in2="shape" result="effect1_innerShadow_791_51917"/></filter><filter id="c" width="7.328" height="7.52" x="15.124" y="6.292" color-interpolation-filters="sRGB" filterUnits="userSpaceOnUse"><feFlood flood-opacity="0" result="BackgroundImageFix"/><feBlend in="SourceGraphic" in2="BackgroundImageFix" result="shape"/><feColorMatrix in="SourceAlpha" result="hardAlpha" values="0 0 0 0 0 0 0 0 0 0 0 0 0 0 0 0 0 0 127 0"/><feOffset dx="-1.68" dy="-1.68"/><feComposite in2="hardAlpha" k2="-1" k3="1" operator="arithmetic"/><feColorMatrix values="0 0 0 0 0 0 0 0 0 0 0 0 0 0 0 0 0 0 0.25 0"/><feBlend in2="shape" result="effect1_innerShadow_791_51917"/></filter><filter id="d" width="5.764" height="11.401" x="10.649" y="2.41" color-interpolation-filters="sRGB" filterUnits="userSpaceOnUse"><feFlood flood-opacity="0" result="BackgroundImageFix"/><feBlend in="SourceGraphic" in2="BackgroundImageFix" result="shape"/><feColorMatrix in="SourceAlpha" result="hardAlpha" values="0 0 0 0 0 0 0 0 0 0 0 0 0 0 0 0 0 0 127 0"/><feOffset dx="-1.68" dy="-1.68"/><feComposite in2="hardAlpha" k2="-1" k3="1" operator="arithmetic"/><feColorMatrix values="0 0 0 0 0 0 0 0 0 0 0 0 0 0 0 0 0 0 0.25 0"/><feBlend in2="shape" result="effect1_innerShadow_791_51917"/></filter><filter id="e" width="7.33" height="7.508" x="4.608" y="6.303" color-interpolation-filters="sRGB" filterUnits="userSpaceOnUse"><feFlood flood-opacity="0" result="BackgroundImageFix"/><feBlend in="SourceGraphic" in2="BackgroundImageFix" result="shape"/><feColorMatrix in="SourceAlpha" result="hardAlpha" values="0 0 0 0 0 0 0 0 0 0 0 0 0 0 0 0 0 0 127 0"/><feOffset dx="-1.68" dy="-1.68"/><feComposite in2="hardAlpha" k2="-1" k3="1" operator="arithmetic"/><feColorMatrix values="0 0 0 0 0 0 0 0 0 0 0 0 0 0 0 0 0 0 0.25 0"/><feBlend in2="shape" result="effect1_innerShadow_791_51917"/></filter><filter id="f" width="14.573" height="4.35" x="6.244" y="13.554" color-interpolation-filters="sRGB" filterUnits="userSpaceOnUse"><feFlood flood-opacity="0" result="BackgroundImageFix"/><feBlend in="SourceGraphic" in2="BackgroundImageFix" result="shape"/><feColorMatrix in="SourceAlpha" result="hardAlpha" values="0 0 0 0 0 0 0 0 0 0 0 0 0 0 0 0 0 0 127 0"/><feOffset dx="-.514" dy="-.514"/><feComposite in2="hardAlpha" k2="-1" k3="1" operator="arithmetic"/><feColorMatrix values="0 0 0 0 0 0 0 0 0 0 0 0 0 0 0 0 0 0 0.25 0"/><feBlend in2="shape" result="effect1_innerShadow_791_51917"/></filter></defs></svg>
